X:248
T: JETZT REISEN WIR BRUEDER
N: Z0247
O: Europa, Mitteleuropa, Deutschland
R: Handwerker - Lied
M: 3/8
L: 1/16
K: Bb
F2 | F2B2B2 | B2B2d2 | d2c2c2 | d4
cd | e2d2d2 | c2c2B2 | c2c2z2 | z4
F2 | F2B2B2 | B2B2d2 | d2c2c2 | d4
cd | e2d2d2 | c4B2 | c2B2z2 | z4
d2 | e4dd | c4d2 | e2e2d2 | c4
d2 | B2A2A2 | B4d2 | d4c2 | d4
c2 | e2d2d2 | c4B2 | c2B2z2 | z4

